src/data/flags/fukushima.svg

<?xml version="1.0" encoding="UTF-8" standalone="no"?>
<!-- Created with Inkscape (http://www.inkscape.org/) -->
<svg
   xmlns:dc="http://purl.org/dc/elements/1.1/"
   xmlns:cc="http://web.resource.org/cc/"
   xmlns:rdf="http://www.w3.org/1999/02/22-rdf-syntax-ns#"
   xmlns:svg="http://www.w3.org/2000/svg"
   xmlns="http://www.w3.org/2000/svg"
   xmlns:sodipodi="http://sodipodi.sourceforge.net/DTD/sodipodi-0.dtd"
   xmlns:inkscape="http://www.inkscape.org/namespaces/inkscape"
   width="471"
   height="314"
   id="svg2"
   sodipodi:version="0.32"
   inkscape:version="0.44.1"
   version="1.0"
   sodipodi:docbase="D:\program\svg\旗"
   sodipodi:docname="Flag_of_Fukushima.svg">
  <defs
     id="defs4" />
  <sodipodi:namedview
     id="base"
     pagecolor="#ffffff"
     bordercolor="#666666"
     borderopacity="1.0"
     gridtolerance="10000"
     guidetolerance="10"
     objecttolerance="10"
     inkscape:pageopacity="0.0"
     inkscape:pageshadow="2"
     inkscape:zoom="1.4142136"
     inkscape:cx="244.05466"
     inkscape:cy="94.000129"
     inkscape:document-units="px"
     inkscape:current-layer="layer1"
     inkscape:window-width="799"
     inkscape:window-height="571"
     inkscape:window-x="512"
     inkscape:window-y="84" />
  <metadata
     id="metadata7">
    <rdf:RDF>
      <cc:Work
         rdf:about="">
        <dc:format>image/svg+xml</dc:format>
        <dc:type
           rdf:resource="http://purl.org/dc/dcmitype/StillImage" />
      </cc:Work>
    </rdf:RDF>
  </metadata>
  <g
     inkscape:label="Layer 1"
     inkscape:groupmode="layer"
     id="layer1">
    <rect
       style="opacity:1;color:black;fill:#d84b24;fill-opacity:1;fill-rule:evenodd;stroke:#d84b24;stroke-width:1px;stroke-linecap:butt;stroke-linejoin:miter;marker:none;marker-start:none;marker-mid:none;marker-end:none;stroke-miterlimit:4;stroke-dasharray:none;stroke-dashoffset:0;stroke-opacity:1;visibility:visible;display:inline;overflow:visible"
       id="rect3686"
       width="471"
       height="314"
       x="0"
       y="0" />
    <path
       sodipodi:type="arc"
       style="opacity:1;color:black;fill:white;fill-opacity:1;fill-rule:evenodd;stroke:white;stroke-width:1.02251111;stroke-linecap:butt;stroke-linejoin:miter;marker:none;marker-start:none;marker-mid:none;marker-end:none;stroke-miterlimit:4;stroke-dasharray:none;stroke-dashoffset:0;stroke-opacity:1;visibility:visible;display:inline;overflow:visible"
       id="path2789"
       sodipodi:cx="190.56528"
       sodipodi:cy="136.5162"
       sodipodi:rx="100.05561"
       sodipodi:ry="93.338097"
       d="M 290.62089 136.5162 A 100.05561 93.338097 0 1 1  90.509666,136.5162 A 100.05561 93.338097 0 1 1  290.62089 136.5162 z"
       transform="matrix(0.944584,0,0,1.012566,9.247322,0.658274)" />
    <path
       sodipodi:type="arc"
       style="opacity:1;color:black;fill:#d84b24;fill-opacity:1;fill-rule:evenodd;stroke:#d84b24;stroke-width:1.05095858;stroke-linecap:butt;stroke-linejoin:miter;marker:none;marker-start:none;marker-mid:none;marker-end:none;stroke-miterlimit:4;stroke-dasharray:none;stroke-dashoffset:0;stroke-opacity:1;visibility:visible;display:inline;overflow:visible"
       id="path1900"
       sodipodi:cx="212.85715"
       sodipodi:cy="146.14285"
       sodipodi:rx="66.428574"
       sodipodi:ry="65"
       d="M 279.28572 146.14285 A 66.428574 65 0 1 1  146.42857,146.14285 A 66.428574 65 0 1 1  279.28572 146.14285 z"
       transform="matrix(0.941225,0,0,0.961912,-12.1321,-1.926473)" />
    <path
       style="fill:white;fill-rule:evenodd;stroke:white;stroke-width:1px;stroke-linecap:butt;stroke-linejoin:miter;stroke-opacity:1"
       d="M 64.346717,202.98424 C 78.088555,203.3244 90.718083,196.12236 97.580736,183.89235 C 101.58768,194.26325 107.59808,202.15928 114.90485,210.0553 C 105.70247,219.96236 95.791034,229.01781 80.610173,230.5614 L 64.346717,202.98424 z "
       id="path3678"
       sodipodi:nodetypes="ccccc" />
    <path
       style="fill:white;fill-rule:evenodd;stroke:white;stroke-width:1px;stroke-linecap:butt;stroke-linejoin:miter;stroke-opacity:1"
       d="M 279.66073,185.66012 C 274.21519,194.89924 268.24492,203.87599 260.9224,212.17662 C 271.88255,222.90108 281.6642,228.67578 295.57064,232.68272 C 303.83955,222.56723 310.04531,212.86436 313.60185,203.69134 C 301.15753,204.39465 287.88519,198.63149 279.66073,185.66012 z "
       id="path3680"
       sodipodi:nodetypes="ccccc" />
    <path
       style="fill:white;fill-rule:evenodd;stroke:white;stroke-width:1px;stroke-linecap:butt;stroke-linejoin:miter;stroke-opacity:1"
       d="M 159.09903,16.308045 L 203.64675,17.015152 C 192.43412,29.404276 202.25747,42.227672 210.36427,47.06719 L 170.41273,53.784704 C 162.41469,43.413804 158.66414,28.800265 159.09903,16.308045 z "
       id="path3682"
       sodipodi:nodetypes="ccccc" />
    <path
       style="fill:#d84b24;fill-rule:evenodd;stroke:#d84b24;stroke-width:1px;stroke-linecap:butt;stroke-linejoin:miter;stroke-opacity:1;fill-opacity:1"
       d="M 153.81869,38.792064 L 158.27365,10.31719 C 157.7534,22.047662 161.16879,48.791902 176.96981,62.238881 C 186.73666,70.550664 196.60058,76.451381 205.76807,78.533442 L 181.01934,76.058568 C 174.85935,72.111114 157.85851,54.590697 153.81869,38.792064 z "
       id="path3684"
       sodipodi:nodetypes="ccsccc" />
  </g>
</svg>

<svg xmlns="http://www.w3.org/2000/svg" width="471" height="314" version="1.0"><g fill-rule="evenodd"><path style="marker:none" color="#000" fill="#d84b24" stroke="#d84b24" overflow="visible" d="M0 0h471v314H0z"/><path style="marker:none" d="M290.62 136.516a100.056 93.338 0 1 1-200.11 0 100.056 93.338 0 1 1 200.11 0z" transform="matrix(.94458 0 0 1.01257 9.247 .658)" color="#000" fill="#fff" stroke="#fff" stroke-width="1.023" overflow="visible"/><path style="marker:none" d="M279.286 146.143a66.429 65 0 1 1-132.857 0 66.429 65 0 1 1 132.857 0z" transform="matrix(.94122 0 0 .96191 -12.132 -1.926)" color="#000" fill="#d84b24" stroke="#d84b24" stroke-width="1.051" overflow="visible"/><path d="M64.347 202.984c13.742.34 26.371-6.862 33.234-19.092 4.007 10.371 10.017 18.267 17.324 26.163-9.203 9.907-19.114 18.963-34.295 20.506l-16.263-27.577zM279.66 185.66c-5.445 9.24-11.415 18.216-18.738 26.517 10.96 10.724 20.742 16.499 34.649 20.506 8.269-10.116 14.474-19.819 18.03-28.992-12.443.704-25.716-5.06-33.94-18.03zM159.099 16.308l44.548.707c-11.213 12.39-1.39 25.213 6.717 30.052l-39.951 6.718c-7.998-10.371-11.749-24.985-11.314-37.477z" fill="#fff" stroke="#fff"/><path d="M153.819 38.792l4.455-28.475c-.52 11.73 2.895 38.475 18.696 51.922 9.767 8.312 19.63 14.212 28.798 16.294L181.02 76.06c-6.16-3.948-23.16-21.468-27.2-37.267z" fill="#d84b24" stroke="#d84b24"/></g></svg>
